src/view/frontend/web/svg/heroicons/outline/server.svg

<svg  viewBox="0 0 24 24" fill="none" stroke="currentColor" xmlns="http://www.w3.org/2000/svg">
<path d="M5 12H19M5 12C3.89543 12 3 11.1046 3 10V6C3 4.89543 3.89543 4 5 4H19C20.1046 4 21 4.89543 21 6V10C21 11.1046 20.1046 12 19 12M5 12C3.89543 12 3 12.8954 3 14V18C3 19.1046 3.89543 20 5 20H19C20.1046 20 21 19.1046 21 18V14C21 12.8954 20.1046 12 19 12M17 8H17.01M17 16H17.01"  stroke-width="2" stroke-linecap="round" stroke-linejoin="round"/>
</svg>

<svg xmlns="http://www.w3.org/2000/svg" fill="none" stroke="currentColor" viewBox="0 0 24 24"><path stroke-linecap="round" stroke-linejoin="round" stroke-width="2" d="M5 12h14M5 12a2 2 0 0 1-2-2V6a2 2 0 0 1 2-2h14a2 2 0 0 1 2 2v4a2 2 0 0 1-2 2M5 12a2 2 0 0 0-2 2v4a2 2 0 0 0 2 2h14a2 2 0 0 0 2-2v-4a2 2 0 0 0-2-2m-2-4h.01M17 16h.01"/></svg>
